X:132
T:Preston Guild
M:6/8
L:1/8
B:Thompson's Compleat Collection of 200 Favourite Country Dances, vol. 2 (London, 1765)
Z:Transcribed and edited by Flynn Titford-Mock, 2007
Z:abc's:AK/Fiddler's Companion
K:G
dBG A2G | dBG A2G | cBA Ged | cBA G3 | dBG A2G | dBG A2G | gfg efg | Ad^c d3 :|
|: de=f {d}c2B | de=f {d}c2B | cBc EFG | ABc {G}F2A | dBG A2G | dBG A2G | gfe dcB | AGF G :|

